svg/account_star_outline.svg

<svg xmlns="http://www.w3.org/2000/svg" viewBox="0 0 24 24"><path d="M15 4a4 4 0 0 1 4 4 4 4 0 0 1-4 4 4 4 0 0 1-4-4 4 4 0 0 1 4-4m0 1.9A2.1 2.1 0 0 0 12.9 8a2.1 2.1 0 0 0 2.1 2.1 2.1 2.1 0 1 0 0-4.2m0 7.1c2.67 0 8 1.33 8 4v3H7v-3c0-2.67 5.33-4 8-4m0 1.9c-3 0-6.1 1.46-6.1 2.1v1.1h12.2V17c0-.64-3.13-2.1-6.1-2.1M5 13.28l-2.5 1.49.68-2.81L1 10.08l2.87-.25L5 7.19l1.11 2.64 2.89.25-2.2 1.88.65 2.81z"/></svg>

<?xml version="1.0" encoding="UTF-8"?><!DOCTYPE svg PUBLIC "-//W3C//DTD SVG 1.1//EN" "http://www.w3.org/Graphics/SVG/1.1/DTD/svg11.dtd"><svg xmlns="http://www.w3.org/2000/svg" xmlns:xlink="http://www.w3.org/1999/xlink" version="1.1" id="mdi-account-star-outline" width="24" height="24" viewBox="0 0 24 24"><path d="M15,4A4,4 0 0,1 19,8A4,4 0 0,1 15,12A4,4 0 0,1 11,8A4,4 0 0,1 15,4M15,5.9A2.1,2.1 0 0,0 12.9,8A2.1,2.1 0 0,0 15,10.1C16.16,10.1 17.1,9.16 17.1,8C17.1,6.84 16.16,5.9 15,5.9M15,13C17.67,13 23,14.33 23,17V20H7V17C7,14.33 12.33,13 15,13M15,14.9C12,14.9 8.9,16.36 8.9,17V18.1H21.1V17C21.1,16.36 17.97,14.9 15,14.9M5,13.28L2.5,14.77L3.18,11.96L1,10.08L3.87,9.83L5,7.19L6.11,9.83L9,10.08L6.8,11.96L7.45,14.77L5,13.28Z" /></svg>
